svg/u1f3c6.svg

<svg viewBox="0 0 128 128" xmlns="http://www.w3.org/2000/svg">
  <path d="M97.12,59.35c2.22-1.83,15.04-9.76,22.06-16.44c5.48-5.22,7.6-18.85-0.83-25.48 c-10.96-8.61-21.48,0.43-21.48,0.43s-0.92-5.11-7.32-8.11c-8.06-3.78-18.27-5.19-27.66-5.07c-9.1,0.11-17.48,1.21-24.92,4.86 c-6.66,3.27-7.06,7.93-7.06,7.93s-8.74-8.35-19.45-1.57c-10.7,6.79-7.63,20.39-2.48,26.1c6.71,7.44,14.77,11.23,18.43,13.97 c3.65,2.74,7.15,5.35,7.15,7.7c0,2.35-1.04,2.87-1.44,2.74c-0.39-0.13-1.08-2.42-2.87-1.44c-2.44,1.35-1.7,6.79,3.39,7.31 c4.93,0.51,5.87-4.7,5.87-4.7l0.78-5.09l8.09,5.61l8.87,7.31l-0.26,6.26c0,0-0.39,4.83-2.74,9.01s-6.13,8.35-6.13,8.35L47,102.81 l32.89-0.78l-1.04-3.65c0,0-4.24-4.66-6.79-9.66c-1.82-3.58-2.11-7.19-2.11-7.19l-0.08-8.98l17.07-10.46c0,0,1.83,1.44,1.57,1.96 c-0.26,0.52-0.32,5.85,3.78,7.83c4.05,1.96,7.31-0.52,6.92-3.92c-0.39-3.39-2.48-2.22-3.13-1.7c-0.65,0.52-2.09,0.65-2.48-1.31 C93.2,63.01,94.9,61.18,97.12,59.35z M13.09,40.89l-3.91-11.9l4.73-6.19l5.3-1.55c0,0,6.77,5.05,7.01,5.46 c0.24,0.41,4.32,8.8,4.32,8.8l5.38,19.48L13.09,40.89z M89.95,56.54c0.08-0.41,5.05-20.87,5.05-20.87c0-0.24,3.5-1.87,3.5-2.2 c0-0.33,6.36-10.68,6.36-10.68l10.6,0.41l2.2,10.51l-5.3,8.72C112.37,42.44,89.87,56.94,89.95,56.54z" fill="#FEC417"/>
  <path d="M119.92,30.64c-0.78-9.32-10-11.55-13.79-10.2s-6.25,3.88-7.09,7.48c-0.68,2.91-1.36,4.85-2.14,5.15 c-0.86,0.32-1.65,0.19-1.65,0.19s-0.14-6.3-0.1-8.84c0.1-5.24,1.7-6.58,1.7-6.58s-0.34-1.77-1.02-2.75 c-0.68-0.97-1.94-2.23-1.94-2.23s0.29,2.52-0.97,3.11s-2.62-0.29-2.62-0.29l1.26,5.24c0,0-2.04,26.12-2.23,26.7 c-0.19,0.58-7.86,13.88-7.86,13.88s-4.47,4.18-6.6,5.15c-2.14,0.97-3.98,3.5-12.23,3.59c-8.25,0.1-15.34-6.41-15.34-6.41l-7.09-6.8 l-5.24-15.44l-0.78-15.73l0.33-5.72l0.23-2.39l-0.37-1.21c0,0-0.68,0.68-1.94,0.39c-1.26-0.29-1.75-1.94-1.75-1.94 s-0.49,0.78-0.58,1.17c-0.1,0.39-0.2,1.29-0.2,1.29s1.36,1.43,1.65,3.47c0.29,2.04-0.1,10.49-1.55,10.29 c-1.46-0.19-0.98-7.28-6.51-10c-4.79-2.36-11.94-1.65-14.86,4.27c-2.91,5.92-0.78,12.91,8.35,19.42S35.84,56.88,37.38,62.1 c1.84,6.21-2.33,9.9-2.33,9.9s3.03-0.42,4.52-3.67c0.48-1.05,0.66-2.58,0.73-3.49c3.45,4.5,8.04,8.31,14.12,10.15 c2.3,0.79,4.89,1.19,8.49,1.19c0.52,0,1.03-0.02,1.54-0.04c4.21-0.15,7.81-0.94,11.3-2.67c4.71-2.18,8.36-5.51,11.18-9.29 c-0.08,0.9,0.47,3.14,1.52,4.91c1.84,3.11,4.95,3.3,4.95,3.3s-4.27-2.52-3.4-8.54c0.87-6.02,4.85-8.16,10.87-12.04 C106.91,47.92,120.69,39.96,119.92,30.64z M21.27,43.85c-2.71-1.91-7.46-4.46-9.42-8.35c-2.61-5.19-0.49-11.46,4.47-12.23 c10.3-1.62,10.49,11.17,11.17,12.72c0.68,1.55,2.62,1.65,2.62,1.65s0.07,0.86,0.35,2.52c0.01,0.05,0.02,0.09,0.02,0.14 c0.01,0.05,0.02,0.1,0.03,0.15c0.19,1.13,0.46,2.54,0.84,4.15c0.01,0.04,0.02,0.08,0.03,0.12c0.21,0.91,0.43,1.77,0.66,2.56 c0.46,1.66,1.02,3.45,1.71,5.29C32.75,51.89,27.02,47.92,21.27,43.85z M114.58,36.66c-2.15,3.48-6.5,6.07-9.71,8.25 c-4.14,2.81-10.3,7.03-12.04,8.21c0.4-1.06,0.75-2.11,1.07-3.14c0.52-1.36,1.07-3.02,1.45-4.81c1-4.7,1.17-8.81,1.17-8.81 s2.04,0.58,3.3-0.78c1.26-1.36,1.73-5.58,2.91-7.57c1.84-3.11,5.53-6.31,11.07-2.43C117,27.83,117.12,32.54,114.58,36.66z" fill="#FFA828"/>
  <path d="M60.52,79.31l5.65-0.07c0,0,0.15,6.17,1.04,10.77c0.89,4.61,2.08,9.73,2.08,9.73 s-11.51,3.86-11.44-0.3s1.78-12.26,1.78-12.26S60.67,77.53,60.52,79.31z" fill="#FFA828"/>
  <path d="M51.04,15.19c0,0,6.29-0.71,12.14-0.62s11.87,1.24,11.87,1.24s-0.35,19.58-1.42,30.57 c-1.06,10.99-5.22,19.22-6.33,21.55c-1.07,2.26-1.85,3.47-1.85,3.47l-5.64-0.66l-9.75-19.58L51.04,15.19z" fill="#FFA828"/>
  <path d="M43.51,18.12c0,0,1.77-0.89,4.34-1.86c2.33-0.88,4.43-1.15,4.43-1.15s0.06,12.98,0.27,22.24 c0.18,7.89,3.1,20.82,4.52,24.28c1.42,3.46,3.98,8.74,3.98,8.74s-5.15-0.74-8.32-4.76c-1.67-2.12-9.48-18.52-9.75-29.33 S43.77,17.85,43.51,18.12z" fill="#FFEFAB"/>
  <path d="M40.58,19.62c-0.18,0.53-1.59,11.7,0.62,22.06s5.48,17.45,7.64,20.26c1.92,2.49,3.17,3.67,3.88,3.67 s-2.92-8.59-4.61-15.33c-1.68-6.73-2.57-14.8-2.75-18.78c-0.18-3.99-0.35-14.27-0.35-14.27s-1.95,0.89-2.39,1.15 C42.18,18.65,40.58,19.62,40.58,19.62z" fill="#FFFCFD"/>
  <path d="M53.34,99.01c0,0,3.81-6.2,4.61-10.9c0.8-4.7,1.24-8.86,1.24-8.86l2.36,0.1c0,0-0.23,6.81-0.5,11.42 c-0.27,4.61-1.06,9.13-1.06,9.13L53.34,99.01z" fill="#FFEFAB"/>
  <path d="M56.27,75.41c0,0,1.77-1.73,6.64-1.73s6.96,1.87,6.96,1.87L70,81.56c0,0-3.24-1.01-7.18-1.06 c-3.28-0.04-6.81,1.18-6.81,1.18L56.27,75.41z" fill="#D1701C"/>
  <path d="M35,15.72c0.82-0.76,8.68-6.66,27.29-6.82c20.02-0.18,27.53,5.62,28,5.94 c0.53,0.35,1.15,1.95,0.89,2.66c-0.27,0.71-0.8,0.97-2.3,0.35c-1.51-0.62-8.95-6.05-26.85-5.49c-17.19,0.53-24.48,5.76-25.25,6.2 c-0.62,0.35-1.77,0.44-2.3-0.27C33.94,17.59,34.47,16.22,35,15.72z" fill="#D1701C"/>
  <path d="M91.18,19.89c-2.3,0.18-0.71,18.7-5.58,30.3C80.38,62.6,73.72,66.14,73.99,66.85 c0.27,0.71,6.79-1.26,10.9-7.09c3.81-5.4,6.11-10.19,7.18-16.57C93.12,36.81,93.74,19.69,91.18,19.89z" fill="#D1701C"/>
  <path d="M34.51,22.01c-0.58-0.03,0.01,9.21-0.93,13.27c-0.36,1.56-1.24,1.88-1.33,2.23 c-0.09,0.35,1.93,12.24,5.32,17.46c3.28,5.05,9.75,11.34,10.81,10.28c1.06-1.06-4.7-4.61-8.59-12.32 c-2.24-4.42-4.52-11.08-4.61-18.7C35.12,29.19,35.75,22.08,34.51,22.01z" fill="#D1701C"/>
  <path d="M86.77,112.71l-0.01-14.29H40.89c0.14,0,0.03,11.62,0.01,14.34h-6.52v10.35h58.25 c0,0,0-10.18,0-10.35L86.77,112.71z" fill="#865C50"/>
  <path d="M55.59,105.93c-1.13-0.05-2.43,0.18-2.48,1.58s-0.05,5.45-0.05,6.22c0,0.77,0.63,1.44,2.21,1.49 c1.58,0.05,16.41,0,17.45,0c1.04,0,1.58-0.9,1.62-1.8c0.05-0.9-0.05-4.69-0.05-5.72c0-1.71-1.53-1.71-2.57-1.71 C70.6,105.97,55.59,105.93,55.59,105.93z" fill="#FCC219"/>
</svg>

<svg viewBox="0 0 128 128" xmlns="http://www.w3.org/2000/svg">
  <defs/>
  <path d="M97.12,59.35 C99.34,57.52 112.16,49.59 119.18,42.91 C124.66,37.69 126.78,24.06 118.35,17.43 C107.39,8.82 96.87,17.86 96.87,17.86 C96.87,17.86 95.95,12.75 89.55,9.75 C81.49,5.97 71.28,4.56 61.89,4.68 C52.79,4.79 44.41,5.89 36.97,9.54 C30.31,12.81 29.91,17.47 29.91,17.47 C29.91,17.47 21.17,9.12 10.46,15.9 C-0.24,22.69 2.83,36.29 7.98,42 C14.69,49.44 22.75,53.23 26.41,55.97 C30.06,58.71 33.56,61.32 33.56,63.67 C33.56,66.02 32.52,66.54 32.12,66.41 C31.73,66.28 31.04,63.99 29.25,64.97 C26.81,66.32 27.55,71.76 32.64,72.28 C37.57,72.79 38.51,67.58 38.51,67.58 L39.29,62.49 L47.38,68.1 L56.25,75.41 L55.99,81.67 C55.99,81.67 55.6,86.5 53.25,90.68 C50.9,94.86 47.12,99.03 47.12,99.03 L47,102.81 L79.89,102.03 L78.85,98.38 C78.85,98.38 74.61,93.72 72.06,88.72 C70.24,85.14 69.95,81.53 69.95,81.53 L69.87,72.55 L86.94,62.09 C86.94,62.09 88.77,63.53 88.51,64.05 C88.25,64.57 88.19,69.9 92.29,71.88 C96.34,73.84 99.6,71.36 99.21,67.96 C98.82,64.57 96.73,65.74 96.08,66.26 C95.43,66.78 93.99,66.91 93.6,64.95 C93.2,63.01 94.9,61.18 97.12,59.35 Z M13.09,40.89 L9.18,28.99 L13.91,22.8 L19.21,21.25 C19.21,21.25 25.98,26.3 26.22,26.71 C26.46,27.12 30.54,35.51 30.54,35.51 L35.92,54.99 L13.09,40.89 Z M89.95,56.54 C90.03,56.13 95,35.67 95,35.67 C95,35.43 98.5,33.8 98.5,33.47 C98.5,33.14 104.86,22.79 104.86,22.79 L115.46,23.2 L117.66,33.71 L112.36,42.43 C112.37,42.44 89.87,56.94 89.95,56.54 Z" fill="#FEC417"/>
  <path d="M119.92,30.64 C119.14,21.32 109.92,19.09 106.13,20.44 C102.34,21.79 99.88,24.32 99.04,27.92 C98.36,30.83 97.68,32.77 96.9,33.07 C96.04,33.39 95.25,33.26 95.25,33.26 C95.25,33.26 95.11,26.96 95.15,24.42 C95.25,19.18 96.85,17.84 96.85,17.84 C96.85,17.84 96.51,16.07 95.83,15.09 C95.15,14.12 93.89,12.86 93.89,12.86 C93.89,12.86 94.18,15.38 92.92,15.97 C91.66,16.56 90.3,15.68 90.3,15.68 L91.56,20.92 C91.56,20.92 89.52,47.04 89.33,47.62 C89.14,48.2 81.47,61.5 81.47,61.5 C81.47,61.5 77,65.68 74.87,66.65 C72.73,67.62 70.89,70.15 62.64,70.24 C54.39,70.34 47.3,63.83 47.3,63.83 L40.21,57.03 L34.97,41.59 L34.19,25.86 L34.52,20.14 L34.75,17.75 L34.38,16.54 C34.38,16.54 33.7,17.22 32.44,16.93 C31.18,16.64 30.69,14.99 30.69,14.99 C30.69,14.99 30.2,15.77 30.11,16.16 C30.01,16.55 29.91,17.45 29.91,17.45 C29.91,17.45 31.27,18.88 31.56,20.92 C31.85,22.96 31.46,31.41 30.01,31.21 C28.55,31.02 29.03,23.93 23.5,21.21 C18.71,18.85 11.56,19.56 8.64,25.48 C5.73,31.4 7.86,38.39 16.99,44.9 C26.12,51.41 35.84,56.88 37.38,62.1 C39.22,68.31 35.05,72 35.05,72 C35.05,72 38.08,71.58 39.57,68.33 C40.05,67.28 40.23,65.75 40.3,64.84 C43.75,69.34 48.34,73.15 54.42,74.99 C56.72,75.78 59.31,76.18 62.91,76.18 C63.43,76.18 63.94,76.16 64.45,76.14 C68.66,75.99 72.26,75.2 75.75,73.47 C80.46,71.29 84.11,67.96 86.93,64.18 C86.85,65.08 87.4,67.32 88.45,69.09 C90.29,72.2 93.4,72.39 93.4,72.39 C93.4,72.39 89.13,69.87 90,63.85 C90.87,57.83 94.85,55.69 100.87,51.81 C106.91,47.92 120.69,39.96 119.92,30.64 Z M21.27,43.85 C18.56,41.94 13.81,39.39 11.85,35.5 C9.24,30.31 11.36,24.04 16.32,23.27 C26.62,21.65 26.81,34.44 27.49,35.99 C28.17,37.54 30.11,37.64 30.11,37.64 C30.11,37.64 30.18,38.5 30.46,40.16 C30.47,40.21 30.48,40.25 30.48,40.3 C30.49,40.35 30.5,40.4 30.51,40.45 C30.7,41.58 30.97,42.99 31.35,44.6 C31.36,44.64 31.37,44.68 31.38,44.72 C31.59,45.63 31.81,46.49 32.04,47.28 C32.5,48.94 33.06,50.73 33.75,52.57 C32.75,51.89 27.02,47.92 21.27,43.85 Z M114.58,36.66 C112.43,40.14 108.08,42.73 104.87,44.91 C100.73,47.72 94.57,51.94 92.83,53.12 C93.23,52.06 93.58,51.01 93.9,49.98 C94.42,48.62 94.97,46.96 95.35,45.17 C96.35,40.47 96.52,36.36 96.52,36.36 C96.52,36.36 98.56,36.94 99.82,35.58 C101.08,34.22 101.55,30 102.73,28.01 C104.57,24.9 108.26,21.7 113.8,25.58 C117,27.83 117.12,32.54 114.58,36.66 Z" fill="#FFA828"/>
  <path d="M60.52,79.31 L66.17,79.24 C66.17,79.24 66.32,85.41 67.21,90.01 C68.1,94.62 69.29,99.74 69.29,99.74 C69.29,99.74 57.78,103.6 57.85,99.44 C57.92,95.28 59.63,87.18 59.63,87.18 C59.63,87.18 60.67,77.53 60.52,79.31 Z" fill="#FFA828"/>
  <path d="M51.04,15.19 C51.04,15.19 57.33,14.48 63.18,14.57 C69.03,14.66 75.05,15.81 75.05,15.81 C75.05,15.81 74.7,35.39 73.63,46.38 C72.57,57.37 68.41,65.6 67.3,67.93 C66.23,70.19 65.45,71.4 65.45,71.4 L59.81,70.74 L50.06,51.16 L51.04,15.19 Z" fill="#FFA828"/>
  <path d="M43.51,18.12 C43.51,18.12 45.28,17.23 47.85,16.26 C50.18,15.38 52.28,15.11 52.28,15.11 C52.28,15.11 52.34,28.09 52.55,37.35 C52.73,45.24 55.65,58.17 57.07,61.63 C58.49,65.09 61.05,70.37 61.05,70.37 C61.05,70.37 55.9,69.63 52.73,65.61 C51.06,63.49 43.25,47.09 42.98,36.28 C42.71,25.47 43.77,17.85 43.51,18.12 Z" fill="#FFEFAB"/>
  <path d="M40.58,19.62 C40.4,20.15 38.99,31.32 41.2,41.68 C43.41,52.04 46.68,59.13 48.84,61.94 C50.76,64.43 52.01,65.61 52.72,65.61 C53.43,65.61 49.8,57.02 48.11,50.28 C46.43,43.55 45.54,35.48 45.36,31.5 C45.18,27.51 45.01,17.23 45.01,17.23 C45.01,17.23 43.06,18.12 42.62,18.38 C42.18,18.65 40.58,19.62 40.58,19.62 Z" fill="#FFFCFD"/>
  <path d="M53.34,99.01 C53.34,99.01 57.15,92.81 57.95,88.11 C58.75,83.41 59.19,79.25 59.19,79.25 L61.55,79.35 C61.55,79.35 61.32,86.16 61.05,90.77 C60.78,95.38 59.99,99.9 59.99,99.9 L53.34,99.01 Z" fill="#FFEFAB"/>
  <path d="M56.27,75.41 C56.27,75.41 58.04,73.68 62.91,73.68 C67.78,73.68 69.87,75.55 69.87,75.55 L70,81.56 C70,81.56 66.76,80.55 62.82,80.5 C59.54,80.46 56.01,81.68 56.01,81.68 L56.27,75.41 Z" fill="#D1701C"/>
  <path d="M35,15.72 C35.82,14.96 43.68,9.06 62.29,8.9 C82.31,8.72 89.82,14.52 90.29,14.84 C90.82,15.19 91.44,16.79 91.18,17.5 C90.91,18.21 90.38,18.47 88.88,17.85 C87.37,17.23 79.93,11.8 62.03,12.36 C44.84,12.89 37.55,18.12 36.78,18.56 C36.16,18.91 35.01,19 34.48,18.29 C33.94,17.59 34.47,16.22 35,15.72 Z" fill="#D1701C"/>
  <path d="M91.18,19.89 C88.88,20.07 90.47,38.59 85.6,50.19 C80.38,62.6 73.72,66.14 73.99,66.85 C74.26,67.56 80.78,65.59 84.89,59.76 C88.7,54.36 91,49.57 92.07,43.19 C93.12,36.81 93.74,19.69 91.18,19.89 Z" fill="#D1701C"/>
  <path d="M34.51,22.01 C33.93,21.98 34.52,31.22 33.58,35.28 C33.22,36.84 32.34,37.16 32.25,37.51 C32.16,37.86 34.18,49.75 37.57,54.97 C40.85,60.02 47.32,66.31 48.38,65.25 C49.44,64.19 43.68,60.64 39.79,52.93 C37.55,48.51 35.27,41.85 35.18,34.23 C35.12,29.19 35.75,22.08 34.51,22.01 Z" fill="#D1701C"/>
  <path d="M86.77,112.71 L86.76,98.42 L40.89,98.42 C41.03,98.42 40.92,110.04 40.9,112.76 L34.38,112.76 L34.38,123.11 L92.63,123.11 C92.63,123.11 92.63,112.93 92.63,112.76 L86.77,112.71 Z" fill="#865C50"/>
  <path d="M55.59,105.93 C54.46,105.88 53.16,106.11 53.11,107.51 C53.06,108.91 53.06,112.96 53.06,113.73 C53.06,114.5 53.69,115.17 55.27,115.22 C56.85,115.27 71.68,115.22 72.72,115.22 C73.76,115.22 74.3,114.32 74.34,113.42 C74.39,112.52 74.29,108.73 74.29,107.7 C74.29,105.99 72.76,105.99 71.72,105.99 C70.6,105.97 55.59,105.93 55.59,105.93 Z" fill="#FCC219"/>
</svg>
